client/filepreviewer/pdfjs/web/images/toolbarButton-currentOutlineItem.svg

<svg xmlns="http://www.w3.org/2000/svg" height="16" width="16"><path d="m14 9h-6c-1.3 0-1.3 2 0 2h6c1.3 0 1.3-2 0-2zm-5.2-8h-3.8c-1.3 0-1.3 2 0 2h1.7zm-6.8 0c-1 0-1.3 1-0.7 1.7 0.7 0.6 1.7 0.3 1.7-0.7 0-0.5-0.4-1-1-1zm3 8c-1 0-1.3 1-0.7 1.7 0.6 0.6 1.7 0.2 1.7-0.7 0-0.5-0.4-1-1-1zm0.3-4h-0.3c-1.4 0-1.4 2 0 2h2.3zm-3.3 0c-0.9 0-1.4 1-0.7 1.7 0.7 0.6 1.7 0.2 1.7-0.7 0-0.6-0.5-1-1-1zm12 8h-9c-1.3 0-1.3 2 0 2h9c1.3 0 1.3-2 0-2zm-12 0c-1 0-1.3 1-0.7 1.7 0.7 0.6 1.7 0.2 1.7-0.712 0-0.5-0.4-1-1-1z"/><path d="m7.37 4.838 3.93-3.911v2.138h3.629v3.546h-3.629v2.138l-3.93-3.911"/></svg>

<svg xmlns="http://www.w3.org/2000/svg" height="16" width="16"><path d="M14 9H8c-1.3 0-1.3 2 0 2h6c1.3 0 1.3-2 0-2zM8.8 1H5C3.7 1 3.7 3 5 3h1.7zM2 1C1 1 .7 2 1.3 2.7 2 3.3 3 3 3 2c0-.5-.4-1-1-1zm3 8c-1 0-1.3 1-.7 1.7.6.6 1.7.2 1.7-.7 0-.5-.4-1-1-1zm.3-4H5C3.6 5 3.6 7 5 7h2.3zM2 5c-.9 0-1.4 1-.7 1.7C2 7.3 3 6.9 3 6c0-.6-.5-1-1-1zm12 8H5c-1.3 0-1.3 2 0 2h9c1.3 0 1.3-2 0-2zM2 13c-1 0-1.3 1-.7 1.7.7.6 1.7.2 1.7-.712 0-.5-.4-1-1-1zm5.37-8.162L11.3.927v2.138h3.629v3.546H11.3v2.138L7.37 4.838"/></svg>
